ix/bitcoin-card_linear.svg

<svg viewBox="0 0 24 24" fill="none" xmlns="http://www.w3.org/2000/svg" height="1em" width="1em">
  <path d="M2 8.5h11m-7 8h2m2.5 0h4" stroke="#292D32" stroke-width="1.5" stroke-miterlimit="10" stroke-linecap="round" stroke-linejoin="round"/>
  <path d="M22 11.33v4.78c0 3.51-.89 4.39-4.44 4.39H6.44C2.89 20.5 2 19.62 2 16.11V7.89c0-3.51.89-4.39 4.44-4.39h6.84" stroke="#292D32" stroke-width="1.5" stroke-linecap="round" stroke-linejoin="round"/>
  <path d="M17 3.25h3.13c.69 0 1.25.63 1.25 1.25 0 .69-.56 1.25-1.25 1.25H17v-2.5Zm0 2.5h3.57c.79 0 1.43.56 1.43 1.25s-.64 1.25-1.43 1.25H17v-2.5Zm1.76 2.5V9.5m0-7.5v1.25m-.57 0H16m2.19 5H16" stroke="#292D32" stroke-width="1.5" stroke-miterlimit="10" stroke-linecap="round" stroke-linejoin="round"/>
</svg>

<svg viewBox="0 0 24 24" fill="none" xmlns="http://www.w3.org/2000/svg" height="1em" width="1em">
  <path d="M2 8.5H13" stroke="#292D32" stroke-width="1.5" stroke-miterlimit="10" stroke-linecap="round" stroke-linejoin="round"/>
  <path d="M6 16.5H8" stroke="#292D32" stroke-width="1.5" stroke-miterlimit="10" stroke-linecap="round" stroke-linejoin="round"/>
  <path d="M10.5 16.5H14.5" stroke="#292D32" stroke-width="1.5" stroke-miterlimit="10" stroke-linecap="round" stroke-linejoin="round"/>
  <path d="M22 11.33V16.11C22 19.62 21.11 20.5 17.56 20.5H6.44C2.89 20.5 2 19.62 2 16.11V7.89001C2 4.38001 2.89 3.5 6.44 3.5H13.28" stroke="#292D32" stroke-width="1.5" stroke-linecap="round" stroke-linejoin="round"/>
  <path d="M17 3.25H20.13C20.82 3.25 21.38 3.88 21.38 4.5C21.38 5.19 20.82 5.75 20.13 5.75H17V3.25Z" stroke="#292D32" stroke-width="1.5" stroke-miterlimit="10" stroke-linecap="round" stroke-linejoin="round"/>
  <path d="M17 5.75H20.57C21.36 5.75 22 6.31 22 7C22 7.69 21.36 8.25 20.57 8.25H17V5.75Z" stroke="#292D32" stroke-width="1.5" stroke-miterlimit="10" stroke-linecap="round" stroke-linejoin="round"/>
  <path d="M18.76 8.25V9.5" stroke="#292D32" stroke-width="1.5" stroke-miterlimit="10" stroke-linecap="round" stroke-linejoin="round"/>
  <path d="M18.76 2V3.25" stroke="#292D32" stroke-width="1.5" stroke-miterlimit="10" stroke-linecap="round" stroke-linejoin="round"/>
  <path d="M18.19 3.25H16" stroke="#292D32" stroke-width="1.5" stroke-miterlimit="10" stroke-linecap="round" stroke-linejoin="round"/>
  <path d="M18.19 8.25H16" stroke="#292D32" stroke-width="1.5" stroke-miterlimit="10" stroke-linecap="round" stroke-linejoin="round"/>
</svg>
